X: 9039
T: Jack's Magical Pipes (with piano acc.)
C: BB
L: 1/8
M: 4/4
Q: 1/8=320
R: hornpipe
V: 1 program 1 73 %flute
V: 2 volume=70 clef=bass m=D program 1 00
K: D
[V:1] AG|"D"FGAd AFDF|"G"GBBd B4|"A"cdef "Em"gfed|"A"cABc "A7"AGFE|
[V:2] z2|D,2[A2D2F2]A,,2[A2D2F2]|G,,2[G2D2B2]D,,2[G2D2B2]|\
A,,2[A2C2E2]E,,2[E2G2B2]|A,,2[A2C2E2]E,,2[G2C2A,2]|
%
[V:1] "D"FGAd AFDF|"G"GBBd "Em"Bgfe|"D"fdAF "G"GBdg|"A"(3efg ec "D"d2 :|
[V:2] D,2[A2D2F2]A,,2[A2D2F2]|G,,2[G2D2B2]E,,2[E2G2B2]|D,2[A2D2F2]G,,2[G2D2B2]|\
[A,,4C4E,4][D,2A,2F2]:|
%
[V:1] fe|"Bm"dBfB dBfB|"F#m"FAcf efcA|"Bm"dBfB dBfa|"F#m7"efcA "G"B2 fe|
[V:2] z2|B,,2[F2D2B2]D,,2[F2D2B2]|F,,2[A2C2F2]E,,2[A2C2F2]|\
B,,2[F2D2B2]A,,2[F2D2B2]|F,,2[A2C2E2]G,,2[G2D2B2]|
%
[V:1] "Bm"dBfB dBfB|"F#m"FAcf efcA|"D" dafd "Em"Bgec|"D"(3def "A"ec "D"d2 :|
[V:2] B,,2[F2D2B2]D,,2[F2D2B2]|F,,2[A2C2F2]E,,2[A2C2F2]|D,,2[A2D2F2]E,,2[E2G2B2]|\
[D,2A,2F2][A,,2E,2C2][D,2A,2F2] :|
%%%%%%%tune repeat
[V:1] AG|"D"FGAd AFDF|"G"GBBd B4|"A"cdef "Em"gfed|"A"cABc "A7"AGFE|
[V:2] z2|D,2[A2D2F2]A,,2[A2D2F2]|G,,2[G2D2B2]D,,2[G2D2B2]|\
A,,2[A2C2E2]E,,2[E2G2B2]|A,,2[A2C2E2]E,,2[G2C2A,2]|
%
[V:1] "D"FGAd AFDF|"G"GBBd "Em"Bgfe|"D"fdAF "G"GBdg|"A"(3efg ec "D"d2 :|
[V:2] D,2[A2D2F2]A,,2[A2D2F2]|G,,2[G2D2B2]E,,2[E2G2B2]|D,2[A2D2F2]G,,2[G2D2B2]|\
[A,,4C4E,4][D,2A,2F2] :|
%
[V:1] fe|"Bm"dBfB dBfB|"F#m"FAcf efcA|"Bm"dBfB dBfa|"F#m7"efcA "G"B2 fe|
[V:2] z2|B,,2[F2D2B2]D,,2[F2D2B2]|F,,2[A2C2F2]E,,2[A2C2F2]|\
B,,2[F2D2B2]A,,2[F2D2B2]|F,,2[A2C2E2]G,,2[G2D2B2]|
%
[V:1] "Bm"dBfB dBfB|"F#m"FAcf efcA|"D" dafd "Em"Bgec|1 "D"(3def "A"ec "D"d2 :|2\
"D"(3def "A"ec "D"d4-|d4 z4||
[V:2] B,,2[F2D2B2]D,,2[F2D2B2]|F,,2[A2C2F2]E,,2[A2C2F2]|D,,2[A2D2F2]E,,2[E2G2B2]|1\
[D,2A,2F2][A,,2E,2C2] D,,2:|2 [D,2A,2F2][A,,2E,2C2][D,4-A,4-F4-]|[D,4A,4F4] z4||

%%%%%%%%%%%%%%%%%%%%%%%%%%%%%%%%%%%%%%%%%%%

